X: 1
T: Maids' Morris (G)
M: 2/2
L: 1/4
B: The Round Band Book of Playford
K: G
D \
| "G"GG "C"E/F/G | "D"FA- AG/F/ | "Em"GE "A7"E^c | "D"d3 :|
|: d \
| "C"ec- "D7"cc | "G"dB- BB | "Am"cE "C(A7)"EA | "D"FD Dd |
| "C"e/d/c "D7"cB/c/ | "G"d/c/B/A/ GA | "D"FD "D7"dB | "G"G3 :|
